!!!OTL: Benutzung der Zeit.
!!!OTL-incipit: PFLUECKE ROSEN WENN SIE BLUEHN
!!!COM: K. Karow
!!!ARE: Europa, Mitteleuropa, Deutschland
!!!SCT: F0372
!!!TXL: @@DE
!!!YEM: Copyright 1995, estate of Helmut Schaffrath.
**kern	**text
*ICvox	*
*M2/4	*
*k[f#]	*
*G:	*
=1	=1
!LO:TX:a:t=Munter.	!
!LO:TX:a:t=Zweistimmig.	!
{8b/	1._Pflü-
8cc/	-cke
8dd/	Ro-
8b/	-ſen,
=2	=2
8a	wenn
8a	ſie
4dd/}	blühn!
=3	=3
{8a	morgen
8g	.
8f#	iſt
8e	nicht
=4	=4
4d	heut!
4r}	.
=5	=5
{8a	Kei-
8a	-ne
8f#	Stun-
8d	-de
=6	=6
8b/	laß
8cc/	ent-
4dd/}	-fliehn,
=7	=7
{8ee/	flüch-
8ee/	-tig
8f#	iſt
8f#	die
=8	=8
4g	Ʒeit!
4r}	.
==	==
!!!AGN: Jugend - Lied, Moral, Belehrung, Vergaenglichkeit
!!!ONB: ESAC (Essen Associative Code) Database: FINK
!!!AMT: simple duple
!!!AIN: vox
!!!EED: Helmut Schaffrath
!!!EEV: 1.0
!!!source: Musikalischer Hausschatz der Deutschen. Eine Sammlung von über 1000 Liedern und Gesängen mit Singstimmen und Klavierbegleitung. Leipzig, Litterarisches Verlags-Haus.
!!!page: 221
!!!ENC: Anna Maria Matuszewska
!!!EEV: 2025/03/14
*-	*-
